X:14998
T:Schottische fr Denmark 
S:Alistair C
R:Schottische
O:Denmark
O:Sweden
M:4/4
A:Sk\aa{}ne
K:F
AcFA GBEG | F2F2F2 Ac \
|1 B2G2G2e2 | f2c2c3B :|2 B2G2 e2de | f2f2f4:|*
|: d2B2 Bdfd | c2A2 FAcA \
|1 B2G2 EGBd | c2A2 FAcf \
:|2 B2G2e2de | f2f2f4:|**
